X:1
T:180 - Despedida
T:Letra: John Fawcett (1740-1817)
T:Trad.: James Theodore Houston (1847-1929)
T:Música: Edwin Moss (1833 - ?)
M:4/4
L:1/4
Q:1/4=100
K:E
V:1
"E"G>F "B7"B"E"E | "F#m"A>"B7"A "E"G"B"F | "A"c>c "E"BG | "A#dim"G>F "B"Fz | F>B "E"BG | "C#m"G>c "F#"c^A | "B"B>d "C#m"dc | "B/F#"B "F#"^A "B"Bz | "E"e2 "E7"d2 | "A"c2 "E"B2 | "B7"A>G "E"G"F#m"F | "E/B"E"B"D"E"Ez |]
w: 1.~Gran-de Deus, em paz, a-go-ra, Vem, des-pe-de-nos, Se-nhor; Cer-tos de fru-ir as bên-çãos, Que pro-vêm do teu a-mor. Dá-nos for-ças, nes-te mun-do dea-mar-gor!
w: 2.~Gra-ças, gra-ças Te ren-de-mos Pe-la tu-a re-den-ção; E ro-ga-mos, fer-vo-ro-sos, Tu-a fir-me pro-te-ção; Teu Es-pí-ri-to do-mi-neo co-ra-ção.
W: 
W:
W: 1. Grande Deus, em paz, agora,
W: Vem, despede-nos, Senhor;
W: Certos de fruir as bênçãos,
W: Que provêm do teu amor.
W: Dá-nos forças, neste mundo de amargor!
W: 
W:
W:
W: 2. Graças, graças Te rendemos
W: Pela tua redenção;
W: E rogamos, fervorosos,
W: Tua firme proteção;
W: Teu Espírito domine o coração.
W:         
W: 





